src/16/devices/media-flash.svg

<svg xmlns="http://www.w3.org/2000/svg" width="16" height="16"><defs><style id="current-color-scheme" type="text/css"></style></defs><path d="M2 14c0 .554.446 1 1 1h2v-1h6v1h2c.554 0 1-.446 1-1V2c0-.554-.446-1-1-1H6L2 5zM7 3h1v3H7zm2 0h1v3H9zm2 0h1v3h-1zM5 4h1v2H5z" fill="currentColor" color="#727272"/></svg>

<svg xmlns="http://www.w3.org/2000/svg" width="16" height="16" version="1.1" viewBox="0 0 16 16">
 <defs>
  <style id="current-color-scheme" type="text/css">
   .ColorScheme-Text { color:#727272; } .ColorScheme-Highlight { color:#5294e2; }
  </style>
 </defs>
 <path style="fill:currentColor" class="ColorScheme-Text" d="M 2,14 C 2,14.554 2.446,15 3,15 H 5 V 14 H 11 V 15 H 13 C 13.554,15 14,14.554 14,14 V 2 C 14,1.446 13.554,1 13,1 H 6 L 2,5 Z M 7,3 H 8 V 6 H 7 Z M 9,3 H 10 V 6 H 9 Z M 11,3 H 12 V 6 H 11 Z M 5,4 H 6 V 6 H 5 Z"/>
</svg>
